X: 127303
T: ITALIAN MONFRINA
P: Country Dance.
%R: jig
B: James Kerr "Merry Melodies" v.1 p.27 s.3 #3
Z: 2017 John Chambers <jc:trillian.mit.edu>
M: 6/8
L: 1/8
K: G
uG |\
vG2vB B2uA | AGG G2ud | d2F F2A | AGG G2D |\
GAB BcA | AGG G2d | d2F FGA | BGG G2 ||
ud |\
gfg ua2ud | cBc def | gfg afd | cBc def |\
vg2vg gfg | ue2ue efg | ded cBA | G2z g2 |]

% %newpage
%%sep 1 1 500
%%sep 1 1 500
%%center TUNES FOR FLIRTATIONS, COUNTRY DANCES, &c.

%%sep 1 1 500
%%sep 1 1 500

